src/icons/svg/sharehall.svg

<?xml version="1.0" encoding="UTF-8"?>
<svg width="21px" height="24px" viewBox="0 0 21 24" version="1.1" xmlns="http://www.w3.org/2000/svg" xmlns:xlink="http://www.w3.org/1999/xlink">
    <g stroke="none" stroke-width="1" fill="none" fill-rule="evenodd">
        <g transform="translate(-134.000000, -704.000000)" fill="#542DE0" fill-rule="nonzero">
            <g transform="translate(134.000000, 704.000000)">
                <path d="M16.0973578,15.2196056 C14.8750549,15.2196056 13.7680765,15.7218075 12.9713661,16.5305018 L8.47554372,13.6079081 C8.67223834,13.1097828 8.78036703,12.567361 8.78036703,12.0001231 C8.78036703,11.3563853 8.64110208,10.7445772 8.39113658,10.1932632 L11.9553066,7.61935164 C12.7377075,8.33989038 13.7815652,8.78064063 14.9266294,8.78064063 C17.3475137,8.78064063 19.3168129,6.81134139 19.3168129,4.39045712 C19.3168129,1.96957284 17.3475137,0 14.9266294,0 C12.5057452,0 10.5364459,1.96957284 10.5364459,4.39048447 C10.5364459,5.03422227 10.6757109,5.64600303 10.925649,6.19731708 L7.36147894,8.7712286 C6.57907813,8.05068987 5.53522039,7.60993961 4.39018351,7.60993961 C1.96929924,7.60993961 3.55271368e-15,9.57923885 3.55271368e-15,12.0001231 C3.55271368e-15,14.4210074 1.96929924,16.3903066 4.39018351,16.3903066 C5.61265059,16.3903066 6.71979315,15.8879679 7.51653088,15.0790821 L12.0121618,18.0015664 C11.8153577,18.4998011 11.7071743,19.0424145 11.7071743,19.6098165 C11.7071743,22.0307008 13.6764735,24 16.0973578,24 C18.5182421,24 20.4875413,22.0307008 20.4875413,19.6098165 C20.4875413,17.1889322 18.518242,15.2196056 16.0973578,15.2196056 Z M14.9266294,1.75607888 C16.3791709,1.75607888 17.5607341,2.93794299 17.5607341,4.39048447 C17.5607341,5.84302598 16.3791436,7.0245891 14.9266294,7.0245891 C14.067756,7.0245891 13.3036867,6.61141821 12.822525,5.97342611 C12.8133866,5.95911657 12.8039199,5.9449712 12.7938512,5.9310447 C12.7837004,5.91695404 12.7731119,5.90338323 12.7622772,5.89008605 C12.4662913,5.46419253 12.2925248,4.94729799 12.2925248,4.3904845 C12.2925248,2.93794296 13.4740879,1.75607888 14.9266294,1.75607888 Z M6.61735545,13.4051121 C6.6105427,13.414743 6.60375729,13.4244012 6.59727284,13.4343878 C6.59108937,13.4439093 6.58534365,13.4535402 6.5795706,13.4631984 C6.10650759,14.1688257 5.30175325,14.6342551 4.39018351,14.6342551 C2.937642,14.6342551 1.75607888,13.4526646 1.75607888,12.0001505 C1.75607888,10.547609 2.93766936,9.36604585 4.39018351,9.36604585 C5.84272502,9.36604585 7.02428815,10.5476363 7.02428815,12.0001505 C7.02428815,12.5163336 6.8749272,12.9982341 6.61735545,13.4051121 Z M16.0973578,22.2438937 C14.6448163,22.2438937 13.4632532,21.0623033 13.4632532,19.6097891 C13.4632532,19.0896113 13.6148303,18.6042087 13.8760957,18.1953608 C13.8808017,18.188548 13.8857266,18.1819815 13.8902685,18.1749772 C13.8946188,18.1682739 13.8986134,18.1614338 13.9027722,18.1546484 C14.3751239,17.4446161 15.1824227,16.9756845 16.0973851,16.9756845 C17.5499267,16.9756845 18.7314898,18.1572749 18.7314898,19.6097891 C18.7314898,21.0623306 17.5498719,22.2438937 16.0973578,22.2438937 Z" id="形状"></path>
            </g>
        </g>
    </g>
</svg>

<svg width="21" height="24" xmlns="http://www.w3.org/2000/svg"><path d="M16.097 15.22c-1.222 0-2.329.502-3.126 1.31l-4.495-2.922c.196-.498.304-1.04.304-1.608 0-.644-.139-1.255-.389-1.807l3.564-2.574a4.373 4.373 0 002.972 1.162c2.42 0 4.39-1.97 4.39-4.39 0-2.421-1.97-4.391-4.39-4.391-2.421 0-4.39 1.97-4.39 4.39 0 .644.139 1.256.389 1.807L7.36 8.771a4.373 4.373 0 00-2.97-1.161C1.968 7.61 0 9.58 0 12c0 2.421 1.97 4.39 4.39 4.39 1.223 0 2.33-.502 3.127-1.31l4.495 2.922A4.395 4.395 0 0016.097 24c2.421 0 4.39-1.97 4.39-4.39 0-2.421-1.969-4.39-4.39-4.39zm-1.17-13.464A2.637 2.637 0 0117.56 4.39a2.632 2.632 0 01-4.798 1.5 2.62 2.62 0 01-.47-1.5 2.637 2.637 0 012.634-2.634zm-8.31 11.65a.89.89 0 00-.02.028l-.017.03a2.634 2.634 0 11.037-.059zm9.48 8.838a2.637 2.637 0 01-2.634-2.634c0-.52.152-1.006.413-1.415l.014-.02.013-.02a2.634 2.634 0 112.194 4.089z"/></svg>
